X: 100
T: La Brancas
%R: march, reel
B: Stewart "A Select Collection of Airs, Jigs, Marches and Reels", ca.1784, p.49 #100
F: http://imslp.org/wiki/A_Select_Collection_of_Airs,_Jigs,_Marches_and_Reels_%28Various%29
Z: 2017 John Chambers <jc:trillian.mit.edu>
M: 2/4
L: 1/16
K: Am
E2 |\
A2c2B2d2 | c4 B2cd | e2A2B2^G2 | A^GAB A2D2 |\
A2c2B2d2 | c4 B2cd | e2A2B2^G2 | A6 :|
|: cd |\
e2e2d2^c2 | d4 z2Bc | d2d2c2B2 | c4 z2Bc |\
d2d2c2B2 | c4 B2A2 | B4 ^G4 | A6 :|

%%sep 1 1 500
%%sep 1 1 500

